svg/color/nvdaon.svg

<svg width="40" height="40" viewBox="0 0 40 40" fill="none" xmlns="http://www.w3.org/2000/svg">
<g clip-path="url(#clip0_821_4030)">
<path d="M20 0C31.0457 0 40 8.9543 40 20C40 31.0457 31.0457 40 20 40C8.95431 40 7.90517e-06 31.0457 0 20C6.58765e-07 8.95431 8.95431 1.97595e-06 20 0Z" fill="#E4F1CC"/>
<path d="M26 6C30.4183 6 34 9.58172 34 14V26C34 30.4183 30.4183 34 26 34H14C9.58172 34 6 30.4183 6 26V14C6 9.58172 9.58172 6 14 6H26Z" fill="#76B900"/>
<path d="M17.4567 17.3316V16.1399C17.5743 16.1312 17.6921 16.1262 17.81 16.1249C21.0783 16.0216 23.2208 18.9366 23.2208 18.9366C23.2208 18.9366 20.9092 22.1457 18.4292 22.1457C18.0975 22.1457 17.7733 22.0941 17.4642 21.9916V18.3699C18.7375 18.5241 18.995 19.0841 19.7533 20.3574L21.4533 18.9291C21.4533 18.9291 20.21 17.3024 18.12 17.3024C17.8985 17.2975 17.6769 17.3072 17.4567 17.3316ZM17.4567 13.3857V15.1674L17.81 15.1449C22.3517 14.9907 25.3183 18.8699 25.3183 18.8699C25.3183 18.8699 21.9183 23.0066 18.3767 23.0066C18.0683 23.0066 17.7658 22.9774 17.4642 22.9257V24.0299C17.7142 24.0591 17.9725 24.0816 18.2225 24.0816C21.52 24.0816 23.9058 22.3957 26.2167 20.4082C26.5992 20.7174 28.1667 21.4607 28.4917 21.7849C26.2975 23.6249 21.1817 25.1049 18.2808 25.1049C18.0017 25.1049 17.7367 25.0899 17.4717 25.0607V26.6141H30V13.3857H17.4567ZM17.4567 21.9907V22.9332C14.4092 22.3882 13.5625 19.2166 13.5625 19.2166C13.5625 19.2166 15.0275 17.5966 17.4567 17.3316V18.3624H17.45C16.1767 18.2074 15.175 19.3999 15.175 19.3999C15.175 19.3999 15.7417 21.4099 17.4575 21.9916M12.0467 19.0832C12.0467 19.0832 13.85 16.4191 17.4633 16.1391V15.1674C13.4608 15.4916 10 18.8774 10 18.8774C10 18.8774 11.9583 24.5457 17.4567 25.0607V24.0299C13.4233 23.5299 12.0467 19.0832 12.0467 19.0832Z" fill="white"/>
</g>
<defs>
<clipPath id="clip0_821_4030">
<rect width="40" height="40" fill="white"/>
</clipPath>
</defs>
</svg>

<svg xmlns="http://www.w3.org/2000/svg" width="40" height="40" fill="none" viewBox="0 0 40 40"><g clip-path="url(#nvdaon_svg-a)"><path fill="#E4F1CC" d="M20 0c11.046 0 20 8.954 20 20s-8.954 20-20 20S0 31.046 0 20 8.954 0 20 0"/><path fill="#76B900" d="M26 6a8 8 0 0 1 8 8v12a8 8 0 0 1-8 8H14a8 8 0 0 1-8-8V14a8 8 0 0 1 8-8z"/><path fill="#fff" d="M17.457 17.332V16.14a6 6 0 0 1 .353-.015c3.268-.103 5.41 2.812 5.41 2.812s-2.31 3.209-4.79 3.209c-.332 0-.657-.052-.966-.154V18.37c1.274.154 1.531.714 2.29 1.987l1.7-1.428s-1.244-1.627-3.334-1.627a5 5 0 0 0-.663.03m0-3.946v1.781l.353-.022c4.542-.154 7.508 3.725 7.508 3.725s-3.4 4.137-6.941 4.137c-.309 0-.611-.03-.913-.081v1.104c.25.03.509.052.759.052 3.297 0 5.683-1.686 7.994-3.674.382.31 1.95 1.053 2.275 1.377-2.195 1.84-7.31 3.32-10.211 3.32-.28 0-.544-.015-.81-.044v1.553H30V13.386zm0 8.605v.942c-3.048-.545-3.895-3.716-3.895-3.716s1.466-1.62 3.895-1.885v1.03h-.007c-1.273-.155-2.275 1.038-2.275 1.038s.567 2.01 2.282 2.592m-5.41-2.909s1.803-2.664 5.416-2.944v-.972c-4.002.325-7.463 3.71-7.463 3.71s1.958 5.669 7.457 6.184V24.03c-4.034-.5-5.41-4.947-5.41-4.947"/></g><defs><clipPath id="nvdaon_svg-a"><path fill="#fff" d="M0 0h40v40H0z"/></clipPath></defs></svg>
